icons/core/lock.svg

<svg width="32" height="32" viewBox="0 0 32 32" fill="none" xmlns="http://www.w3.org/2000/svg">
<path fill-rule="evenodd" clip-rule="evenodd" d="M11 9C11 6.23858 13.2386 4 16 4C18.7614 4 21 6.23858 21 9V14H11V9ZM9 14H8C6.89543 14 6 14.8954 6 16V28C6 29.1046 6.89543 30 8 30H24C25.1046 30 26 29.1046 26 28V16C26 14.8954 25.1046 14 24 14H23V9C23 5.13401 19.866 2 16 2C12.134 2 9 5.13401 9 9V14ZM8 28V16H24V28H8Z" fill="black"/>
</svg>

<svg viewBox="0 0 32 32" xmlns="http://www.w3.org/2000/svg"><path fill-rule="evenodd" d="M11 9a5 5 0 0110 0v5H11V9zm-2 5H8a2 2 0 00-2 2v12a2 2 0 002 2h16a2 2 0 002-2V16a2 2 0 00-2-2h-1V9A7 7 0 109 9v5zM8 28V16h16v12H8z"/></svg>
